assets/icons/light-mode-24.svg

<svg width="24" height="24" viewBox="0 0 24 24" fill="none" xmlns="http://www.w3.org/2000/svg">
<path d="M3.85714 10.0714L2.42857 11.1429C1.85714 11.5714 1.85714 12.4286 2.42857 12.8571L3.85714 13.9286C3.98728 14.0262 4.12766 14.0887 4.27008 14.1202C4.55839 14.184 4.7295 13.8718 4.66746 13.5831C4.5578 13.0727 4.50007 12.5431 4.50007 12C4.50007 11.4569 4.5578 10.9272 4.66745 10.4169C4.72949 10.1282 4.55837 9.816 4.27006 9.8798C4.12764 9.91132 3.98727 9.97383 3.85714 10.0714Z" fill="#F2F2F2"/>
<path d="M7.93527 18.304C8.18313 18.4642 8.28287 18.8056 8.03422 18.9645C7.91103 19.0433 7.76726 19.0985 7.60584 19.1216L5.83808 19.3741C5.13097 19.4752 4.52488 18.8691 4.62589 18.162L4.87843 16.3942C4.90149 16.2328 4.95676 16.089 5.03549 15.9658C5.19439 15.7171 5.53587 15.8169 5.69601 16.0647C6.27484 16.9606 7.03943 17.7252 7.93527 18.304Z" fill="#F2F2F2"/>
<path d="M14.1202 19.73C14.184 19.4417 13.8718 19.2706 13.5831 19.3326C13.0728 19.4423 12.5432 19.5 12.0001 19.5C11.4569 19.5 10.9273 19.4422 10.4169 19.3326C10.1282 19.2705 9.816 19.4417 9.87981 19.73C9.91133 19.8724 9.97384 20.0127 10.0714 20.1429L11.1429 21.5714C11.5714 22.1429 12.4286 22.1429 12.8571 21.5714L13.9286 20.1429C14.0261 20.0128 14.0887 19.8724 14.1202 19.73Z" fill="#F2F2F2"/>
<path d="M18.3041 16.0649C18.4642 15.817 18.8057 15.7173 18.9646 15.966C19.0433 16.0891 19.0985 16.2328 19.1216 16.3942L19.3741 18.162C19.4751 18.8691 18.869 19.4752 18.1619 19.3741L16.3942 19.1216C16.2328 19.0985 16.089 19.0433 15.9659 18.9646C15.7172 18.8057 15.8169 18.4642 16.0648 18.3041C16.9606 17.7253 17.7252 16.9607 18.3041 16.0649Z" fill="#F2F2F2"/>
<path d="M19.7301 9.87985C19.4418 9.81598 19.2707 10.1282 19.3327 10.4169C19.4423 10.9273 19.5001 11.4569 19.5001 12C19.5001 12.5431 19.4423 13.0727 19.3327 13.5831C19.2706 13.8718 19.4418 14.184 19.7301 14.1202C19.8725 14.0886 20.0128 14.0261 20.1429 13.9286L21.5714 12.8571C22.1429 12.4286 22.1429 11.5714 21.5714 11.1429L20.1429 10.0714C20.0128 9.97387 19.8725 9.91138 19.7301 9.87985Z" fill="#F2F2F2"/>
<path d="M16.0648 5.69592C15.8169 5.53576 15.7172 5.19422 15.9659 5.03536C16.0891 4.9567 16.2328 4.90148 16.3941 4.87843L18.1619 4.62589C18.869 4.52488 19.4751 5.13097 19.3741 5.83808L19.1215 7.60584C19.0985 7.76717 19.0433 7.91085 18.9646 8.034C18.8058 8.28272 18.4642 8.18299 18.3041 7.93511C17.7252 7.03929 16.9607 6.27473 16.0648 5.69592Z" fill="#F2F2F2"/>
<path d="M9.87982 4.26997C9.81599 4.55829 10.1282 4.72942 10.4169 4.66738C10.9273 4.55771 11.4569 4.49998 12.0001 4.49998C12.5432 4.49998 13.0728 4.55771 13.5831 4.66735C13.8718 4.72939 14.184 4.55824 14.1202 4.26992C14.0886 4.12755 14.0261 3.98723 13.9286 3.85714L12.8571 2.42857C12.4286 1.85714 11.5714 1.85714 11.1429 2.42857L10.0714 3.85714C9.97385 3.98724 9.91135 4.12758 9.87982 4.26997Z" fill="#F2F2F2"/>
<path d="M5.69601 7.93522C5.53586 8.18308 5.19436 8.28282 5.03547 8.03414C4.95677 7.91097 4.90152 7.76723 4.87847 7.60584L4.62593 5.83808C4.52491 5.13097 5.13101 4.52488 5.83811 4.62589L7.60588 4.87843C7.76726 4.90148 7.91099 4.95673 8.03416 5.03542C8.28284 5.1943 8.18311 5.53581 7.93524 5.69596C7.0394 6.27479 6.27483 7.03937 5.69601 7.93522Z" fill="#F2F2F2"/>
<path d="M12 17.3571C14.9587 17.3571 17.3572 14.9586 17.3572 12C17.3572 9.04131 14.9587 6.64284 12 6.64284C9.04138 6.64284 6.6429 9.04131 6.6429 12C6.6429 14.9586 9.04137 17.3571 12 17.3571Z" fill="#F2F2F2"/>
</svg>

<svg xmlns="http://www.w3.org/2000/svg" width="24" height="24" viewBox="0 0 24 24"><path d="M3.857 10.071L2.43 11.143a1.071 1.071 0 000 1.714l1.428 1.072c.13.097.27.16.413.191.288.064.46-.248.397-.537a7.53 7.53 0 010-3.166c.062-.289-.109-.601-.397-.537a1.073 1.073 0 00-.413.191zm4.078 8.233c.248.16.348.502.1.66a1.072 1.072 0 01-.43.158l-1.767.252a1.071 1.071 0 01-1.212-1.212l.252-1.768c.023-.161.079-.305.157-.428.16-.249.5-.15.661.099a7.54 7.54 0 002.24 2.239zm6.185 1.426c.064-.288-.248-.46-.537-.397a7.526 7.526 0 01-3.166 0c-.289-.063-.601.109-.537.397.031.142.094.283.191.413l1.072 1.428a1.071 1.071 0 001.714 0l1.072-1.428c.097-.13.16-.27.191-.413zm4.184-3.665c.16-.248.502-.348.66-.099.08.123.135.267.158.428l.252 1.768a1.071 1.071 0 01-1.212 1.212l-1.768-.252a1.072 1.072 0 01-.428-.157c-.249-.16-.15-.5.099-.66a7.542 7.542 0 002.24-2.24zM19.73 9.88c-.288-.064-.46.248-.397.537a7.534 7.534 0 010 3.166c-.062.289.109.601.397.537.142-.031.283-.094.413-.191l1.428-1.072a1.071 1.071 0 000-1.714l-1.428-1.072c-.13-.097-.27-.16-.413-.191zm-3.665-4.184c-.248-.16-.348-.502-.1-.66.124-.08.268-.135.43-.158l1.767-.252a1.071 1.071 0 011.212 1.212l-.252 1.768a1.07 1.07 0 01-.157.428c-.16.249-.5.149-.66-.099a7.54 7.54 0 00-2.24-2.24zM9.88 4.27c-.064.288.248.46.537.397a7.53 7.53 0 013.166 0c.289.062.601-.109.537-.397a1.074 1.074 0 00-.191-.413L12.857 2.43a1.071 1.071 0 00-1.714 0L10.07 3.857c-.097.13-.16.27-.191.413zM5.696 7.935c-.16.248-.502.348-.66.1a1.072 1.072 0 01-.158-.43l-.252-1.767a1.071 1.071 0 011.212-1.212l1.768.252c.161.023.305.079.428.157.249.16.15.5-.099.661a7.54 7.54 0 00-2.239 2.24zM12 17.357a5.357 5.357 0 100-10.714 5.357 5.357 0 000 10.714z"/></svg>
